elements/calendar/img/village-menu-numbers-4.svg

<svg xmlns="http://www.w3.org/2000/svg" viewBox="0 0 108.333 107.815" enable-background="new 0 0 108.333 107.815"><g><circle cx="50.072" cy="57.743" r="50.072" fill="#00B8EF"/><circle cx="85.789" cy="22.544" r="22.545" fill="#00B8EF"/><circle cx="85.789" cy="22.544" r="22.545" opacity=".1"/><path d="M95.027 17.422v-1.9c0-5.185-4.218-9.403-9.403-9.403-5.185 0-9.403 4.217-9.403 9.4v1.902H74.48v17.48H97.1v-17.48h-2.073zm-15.676-1.9c0-3.46 2.815-6.273 6.274-6.273 3.46 0 6.273 2.813 6.273 6.27v1.902H79.35v-1.9zm8.375 15.038h-4.017l1.216-4.872c-.973-.34-1.675-1.255-1.675-2.344 0-1.376 1.115-2.492 2.49-2.492 1.377 0 2.493 1.116 2.493 2.492 0 1.036-.633 1.923-1.532 2.3l1.025 4.916zM60.2 62.234h3.612v6.348H60.2v7.544H51.97v-7.544H38.227l-.488-5.03 14.233-22.9v-.072H60.2v21.654zm-14.624 0h6.396V51.296l-.514.83-5.882 10.108z" fill="#fff"/></g></svg>

<?xml version="1.0" encoding="iso-8859-1"?>
<!-- Generator: Adobe Illustrator 18.0.0, SVG Export Plug-In . SVG Version: 6.00 Build 0)  -->
<!DOCTYPE svg PUBLIC "-//W3C//DTD SVG 1.1//EN" "http://www.w3.org/Graphics/SVG/1.1/DTD/svg11.dtd">
<svg version="1.1" xmlns="http://www.w3.org/2000/svg" xmlns:xlink="http://www.w3.org/1999/xlink" x="0px" y="0px"
	 viewBox="0 0 108.333 107.815" style="enable-background:new 0 0 108.333 107.815;" xml:space="preserve">
<g id="_x34_">
	<circle style="fill:#00B8EF;" cx="50.072" cy="57.743" r="50.072"/>
	<circle style="fill:#00B8EF;" cx="85.789" cy="22.544" r="22.545"/>
	<circle style="opacity:0.1;" cx="85.789" cy="22.544" r="22.545"/>
	<path style="fill:#FFFFFF;" d="M95.027,17.422v-1.901c0-5.184-4.218-9.402-9.403-9.402c-5.185,0-9.403,4.218-9.403,9.402v1.901
		h-1.743v17.481H97.1V17.422H95.027z M79.351,15.521c0-3.459,2.814-6.272,6.273-6.272c3.459,0,6.273,2.814,6.273,6.272v1.901H79.351
		V15.521z M87.725,30.56h-4.017l1.216-4.872c-0.973-0.34-1.675-1.255-1.675-2.344c0-1.376,1.116-2.492,2.492-2.492
		c1.376,0,2.492,1.116,2.492,2.492c0,1.036-0.633,1.923-1.532,2.3L87.725,30.56z"/>
	<g>
		<path style="fill:#FFFFFF;" d="M60.199,62.234h3.613v6.348h-3.613v7.544h-8.227v-7.544H38.227l-0.488-5.029l14.234-22.9v-0.073
			h8.227V62.234z M45.576,62.234h6.396V51.296l-0.514,0.83L45.576,62.234z"/>
	</g>
</g>
<g id="Layer_1">
</g>
</svg>
